svgs/finch.svg

<svg width="192" height="192" viewBox="0 0 192 192" fill="none" xmlns="http://www.w3.org/2000/svg">
<path d="M156.649 30H35.3514C32.3959 30 30 32.3959 30 35.3514V156.649C30 159.604 32.3959 162 35.3514 162H156.649C159.604 162 162 159.604 162 156.649V35.3514C162 32.3959 159.604 30 156.649 30Z" stroke="black" stroke-width="12"/>
<path d="M136.991 89.0246C137.653 92.1381 137.257 94.9959 136.289 97.0616C135.322 99.1243 133.938 100.159 132.596 100.444C131.253 100.73 129.567 100.347 127.846 98.8563C126.121 97.363 124.596 94.9133 123.935 91.7998C123.273 88.6863 123.669 85.8285 124.637 83.7628C125.603 81.7001 126.988 80.6649 128.331 80.3795C129.673 80.0941 131.359 80.4768 133.081 81.968C134.805 83.4614 136.329 85.9111 136.991 89.0246Z" stroke="black" stroke-width="10"/>
<path d="M30.4458 78.6082C42.4863 71.0271 50.9593 73.7028 66.1215 79.946C85.8043 86.7124 95.1649 84.613 108.932 70.5812C126.327 52.9564 138.977 51.9251 162 63.0001" stroke="black" stroke-width="12" stroke-linecap="round"/>
<path d="M58.5406 137.919C58.5406 144.706 52.8605 150.405 45.6082 150.405C38.3559 150.405 32.6758 144.706 32.6758 137.919C32.6758 131.132 38.3559 125.432 45.6082 125.432C52.8605 125.432 58.5406 131.132 58.5406 137.919Z" stroke="black" stroke-width="10"/>
<path d="M163.619 130.18C161.638 131.141 159.433 131.676 157.11 131.676C148.481 131.676 141.486 124.288 141.486 115.176C141.486 106.063 148.481 98.6758 157.11 98.6758C159.497 98.6758 161.76 99.2414 163.784 100.253" stroke="black" stroke-width="10"/>
<path d="M67.4238 104.187C68.0856 107.3 67.6897 110.158 66.7216 112.224C65.755 114.286 64.3709 115.321 63.0282 115.606C61.6855 115.892 60 115.509 58.278 114.018C56.5534 112.525 55.0294 110.075 54.3676 106.962C53.7058 103.849 54.1017 100.99 55.0698 98.9249C56.0363 96.8622 57.4204 95.8271 58.7632 95.5416C60.1059 95.2562 61.7914 95.639 63.5134 97.1301C65.2379 98.6235 66.762 101.073 67.4238 104.187Z" stroke="black" stroke-width="10"/>
<path d="M88.8647 126.77C93.7701 108.932 104.473 108.932 113.392 122.757M88.8647 126.77C99.7164 131.637 105.093 130.787 113.392 122.757M88.8647 126.77C100.598 138.219 106.116 138.235 113.392 122.757" stroke="black" stroke-width="6" stroke-linecap="round" stroke-linejoin="round"/>
</svg>

<svg xmlns="http://www.w3.org/2000/svg" width="192" height="192" fill="none" viewBox="0 0 192 192"><path stroke="#000" stroke-width="12" d="M156.649 30H35.351A5.351 5.351 0 0 0 30 35.351V156.65a5.351 5.351 0 0 0 5.351 5.35H156.65a5.351 5.351 0 0 0 5.351-5.351V35.351A5.351 5.351 0 0 0 156.649 30Z"/><path stroke="#000" stroke-width="10" d="M136.991 89.025c.662 3.113.266 5.97-.702 8.037-.967 2.062-2.351 3.097-3.693 3.382-1.343.286-3.029-.097-4.75-1.588-1.725-1.493-3.25-3.943-3.911-7.056-.662-3.114-.266-5.971.702-8.037.966-2.063 2.351-3.098 3.694-3.384 1.342-.285 3.028.098 4.75 1.589 1.724 1.493 3.248 3.943 3.91 7.057Z"/><path stroke="#000" stroke-linecap="round" stroke-width="12" d="M30.446 78.608c12.04-7.58 20.513-4.905 35.675 1.338 19.683 6.766 29.044 4.667 42.811-9.365 17.395-17.625 30.045-18.656 53.068-7.58"/><path stroke="#000" stroke-width="10" d="M58.54 137.919c0 6.787-5.68 12.486-12.932 12.486-7.252 0-12.932-5.699-12.932-12.486 0-6.787 5.68-12.487 12.932-12.487 7.253 0 12.933 5.7 12.933 12.487Zm105.079-7.739a14.862 14.862 0 0 1-6.509 1.496c-8.629 0-15.624-7.388-15.624-16.5 0-9.113 6.995-16.5 15.624-16.5 2.387 0 4.65.565 6.674 1.577m-96.36 3.934c.662 3.113.266 5.971-.702 8.037-.967 2.062-2.351 3.097-3.694 3.382-1.343.286-3.028-.097-4.75-1.588-1.725-1.493-3.249-3.943-3.91-7.056-.662-3.113-.266-5.972.702-8.037.966-2.063 2.35-3.098 3.693-3.383 1.343-.286 3.028.097 4.75 1.588 1.725 1.494 3.249 3.943 3.91 7.057Z"/><path stroke="#000" stroke-linecap="round" stroke-linejoin="round" stroke-width="6" d="M88.865 126.77c4.905-17.838 15.608-17.838 24.527-4.013m-24.527 4.013c10.851 4.867 16.228 4.017 24.527-4.013m-24.527 4.013c11.733 11.449 17.251 11.465 24.527-4.013"/></svg>
